X: 2
T: Alice's
R: reel
M: 4/4
L: 1/8
K: Emin
|: E3B AGED | E2 (3GFE D2B,D |1 E2G2 A2 (3Bcd | eBdB AGED :|2 GEDE GABd | eBdB AGED ||
|:G2G2 (3ABc BG | A2 A2 (3ABc BA | G2G2 (3ABc BG | (3ABc BA GEED :|


Tune 179	Setting 29547

